X:1
T:Agnus Dei
T:Adolfo Kaim, op. 5
T:ad quatuor voces inaequales
T:Agnus Dei
T: Copyright © 2001 by the Choral Public Domain Library (http://www.cpdl.org). Edition may be freely distributed, duplicated, performed, or recorded.
T: Copyright © 2001 by the Choral Public Domain Library (http://www.cpdl.org). Edition may be freely distributed, duplicated, performed, or recorded.
T: Copyright © 2001 by the Choral Public Domain Library (http://www.cpdl.org). Edition may be freely distributed, duplicated, performed, or recorded.
T: Copyright © 2001 by the Choral Public Domain Library (http://www.cpdl.org). Edition may be freely distributed, duplicated, performed, or recorded.
T: Copyright © 2001 by the Choral Public Domain Library (http://www.cpdl.org). Edition may be freely distributed, duplicated, performed, or recorded.
T: Copyright © 2001 by the Choral Public Domain Library (http://www.cpdl.org). Edition may be freely distributed, duplicated, performed, or recorded.
T: Copyright © 2001 by the Choral Public Domain Library (http://www.cpdl.org). Edition may be freely distributed, duplicated, performed, or recorded.
T: Copyright © 2001 by the Choral Public Domain Library (http://www.cpdl.org). Edition may be freely distributed, duplicated, performed, or recorded.
T: Copyright © 2001 by the Choral Public Domain Library (http://www.cpdl.org). Edition may be freely distributed, duplicated, performed, or recorded.
T: Copyright © 2001 by the Choral Public Domain Library (http://www.cpdl.org). Edition may be freely distributed, duplicated, performed, or recorded.
T: Copyright © 2001 by the Choral Public Domain Library (http://www.cpdl.org). Edition may be freely distributed, duplicated, performed, or recorded.
T: Copyright © 2001 by the Choral Public Domain Library (http://www.cpdl.org). Edition may be freely distributed, duplicated, performed, or recorded.
T: Copyright © 2001 by the Choral Public Domain Library (http://www.cpdl.org). Edition may be freely distributed, duplicated, performed, or recorded.
T: Copyright © 2001 by the Choral Public Domain Library (http://www.cpdl.org). Edition may be freely distributed, duplicated, performed, or recorded.
T: Copyright © 2001 by the Choral Public Domain Library (http://www.cpdl.org). Edition may be freely distributed, duplicated, performed, or recorded.
T: Copyright © 2001 by the Choral Public Domain Library (http://www.cpdl.org). Edition may be freely distributed, duplicated, performed, or recorded.
T: Copyright © 2001 by the Choral Public Domain Library (http://www.cpdl.org). Edition may be freely distributed, duplicated, performed, or recorded.
T: Copyright © 2001 by the Choral Public Domain Library (http://www.cpdl.org). Edition may be freely distributed, duplicated, performed, or recorded.
T: Copyright © 2001 by the Choral Public Domain Library (http://www.cpdl.org). Edition may be freely distributed, duplicated, performed, or recorded.
C:Adolfo Kaim, op. 5
Z:
Z:
Z:Copyright © 2001 by the Choral Public Domain Library (http://www.cpdl.org). Edition may be freely distributed, duplicated, performed, or recorded.
%%score [ 1 2 3 4 ]
L:1/8
M:4/4
K:Eb
V:1 treble nm="Soprano" snm="S."
V:2 treble nm="Alto" snm="A."
V:3 treble-8 transpose=-12 nm="Tenor" snm="T."
V:4 bass nm="Bass" snm="B."
V:1
!p!"^Larghetto" (E4!<(! G2)!<)! A2 | B2 c2 BAGF |!>(! E2 F>!>)!G G3!p! z | B4 c2 d2 | e2 f2 edcB | %5
w: Ky- * ri-|e e- le- * * *|* * i- son,|Ky- * ri-|e e- le- * * *|
 B2 A>G!mf! G2 B2 | e2 d2 c2!>(! B2 |"^ritard." A2!>)!!pp! G2 !fermata!F4 || z4!mf! z2 F2 | %9
w: * * i- son, Ky-|* ri- e- e-|le- i- son.|Chri-|
!<(! A2 B2!<)! c2 d2 |!f! e3 e e4 | z2 B2 e2 d2 | c4 f2 e2 | d2 cd e2 c2 | %14
w: ste _ e- *|le- i- son,|Chri- ste e-|lei- son, Chri-|* * * ste e-|
"^ritard." c4!>(! =B2!>)!!pp! =A2 | !fermata!=B8 ||!mf! c4 B2 A2 | G6 G2 | c4 B2 A2 | G4!p! G4 | %20
w: le- * i-|son.|Ky- * ri-|e e-|le- * *|i- son,|
 F2 G2 A2 B2 | c3 c B4 |!f! A2 B2 c2 d2 | e3 e e4 | z2 B2 e2 d2 | c2 c2 f2 e2 | d2 cd e2 c2 | %27
w: Ky- ri- e e-|le- i- son,|Ky- ri- e e-|le- i- son,|Ky- * ri-|e, Ky- * ri-|e _ _ _ e-|
!>(! B8!>)! | B4 z2"^morendo"!<)!!<(! G2 |!>(! A8!>)! | !fermata!G8 |] %31
w: lei-|son, e-|lei-|son.|
[M:4/4]!mf!"^Maestoso"[Q:1/4=70] E2 E2 G2 A2 | B2 c2 BAGF | E2 E2 F2 F2 | F3 G!ff! G2 B2 | %35
w: Et in ter- ra|pax ho- mi- ni- bus _|bo- nae vo- lun-|ta- * tis, lau-|
 e2 d2 c2 cc | f2 ee d2 cB | B4 c2 d2 | e2 e2 e2 c2 | c4 =B4 | c4 z4 | G2 GG A2 GF | G2 G2 G2 G2 | %43
w: da- mus te, be- ne-|di- ci- mus te, a- do-|ra- * mus|te, glo- ri- fi-|ca- mus|te.|Gra- ti- as a- gi- mus|ti- bi pro- pter|
 A2 c2 BAGF | E2 F>G G4 | z8 | z8 | z4 z2!mf! B2- | B2 cB A2 BA | GBed c>c c2 | B6 A2 | A2 GF G4 | %52
w: mag- nam glo- * ri- am|tu- * * am.|||Do-|* mi- ne fi- li _|u- * ni- * ge- ni- te|Je- su|Chri- * * ste.|
 z8 |!f! z8 | B4 c2 d2 | e4 !fermata!e4 || z8 |!p! z8 | F2 F2 F2 F2 | G4 G2 G2 | %60
w: ||Fi- li- us|Pa- tris.|||mi- se- re- re|no- bis. Qui|
!<(! A2 A!<)!A B2 B2 |"^stringendo." c2 c2 c2 cc | fedc B2 A2 | G2 c2 c2 =B2 | c2 G2 c2 BB | %65
w: tol- lis pec- ca- ta|mun- di, sus- ci- pe|de- * pre- * ca- ti-|o- nem no- *|stram. Qui se- des ad|
 A2 cc f2 e2 | d2 c2"^riten." B2 A2 | G6!>(! A2!>)! | F4!pp!"^Tempo primo" !fermata!F4 || z8 | z8 | %71
w: dex- te- ram Pa- tris|mi- * se- *|re- re|no- bis.|||
 z8 | z8 | z8 | B4 c3 d | e2 f2 edcB | A2 c2 f2 e2 | edef g2 ff | e2 e2 e2 f2 | e2 dc!>(! d4!>)! | %80
w: |||Je- su _|Chri- * ste _ cum _|san- cto spi- ri-|tu _ in _ glo- ri- a|De- i Pa- tris|A- * * *|
 !fermata!e8 |][M:4/4]!mf!!<(! E4!<)! G2 A2 | B2 c2 BAGF | E2 FG A2 FF | F2 G2 z4 | z4 z2 B2 | %86
w: men.|Pa- trem om-|ni- po- ten- * tem fac-|to- rem * coe- li et|ter- ra,|et|
 B2 cd e2 d2 | c3 c!f! B4 | B2 BB B2 e2 | e2 dc d2 ef | e2 d2 c2 B2 | B3 B B4 | %92
w: in- * * vi- si-|bi- li- um,|Do- mi- num Je- sum|Chri- stum * fi- li- um|De- i u- ni-|ge- ni- tum.|
!p! B2 B!<(!c d2!<)! e2 | f2 g2 fedc | B4 B=AGA | B2 c2!f! d4 | e4 e2 e2 | d4 B4 | c4 c2 c2 | %99
w: Et ex * Pa- tre|na- tum an- * te *|om- ni- * a *|sae- cu- la.|De- um de|De- o|lu- men de|
 B3 A G4 | e4 e4 | d4 c2 c2 | B2 e2 e2 d2 | e6 z2 ||!mf! E3 E G2 A2 | B2 c2 BAGF | E2 G2 F2 c2 | %107
w: lu- mi- ne,|De- um|ve- rum de|De- o ve- *|ro.|Ge- ni- tum non|fa- ctum con- sub- stan- ti-|a- lem Pa- *|
 B2 FF B2 AG | F2 B3 cB=A |!f! B2 e2 e2 ee | d3 B B2 B2 | c2 c2 c2 de | d4 d2 d2 | %113
w: tri, per quem om- * ni-|a fa- * cta _|sunt. Qui pro- pter nos|ho- mi- nes et|pro- pter nos- tram sa-|lu- tem de-|
 e4"^riten." d2 c2 | B2!>(! =A2!>)! !fermata!B4 ||[M:3/4]!pp!"^Largo"[Q:1/4=50] E2 G2"^Solo." A2 | %116
w: scen- dit de|coe- * lis.|Et in- car-|
 B2 c2!<(! B!<)!B |!>(! e3!>)! d cB | BA G2 z2 | z2!p! z d cB | =AB/c/ Bf ed | c2!>(! B2!>)! =A2 | %122
w: na- tus est de|Spi- ri- tu *|san- * cto,|Ma- ri- a|vir- gi- * ne et ho- mo|fa- * ctus|
 B2"^Tutti" z2 z2 | z6 | z2 B2 =A2 | G3 F E2 | E2!<(! c2!<)! c2 | B>A A2!f! B2 | c4!>(! c2!>)! | %129
w: est.||e- ti-|am _ pro|no- bis sub|Pon- ti- o Pi-|la- to,|
 z2 c2 B2 |!>(! A4 A2 | G4!>)!!ppp! G2 | !fermata!G6 ||[M:4/4]!p!"^Tempo primo" C4 D2!<(! =E2!<)! | %134
w: pas- sus|et se-|pul- tus|est.|Et re- sur-|
 F4 G2 A2 | G4 G2 c2 | c2 B2 A2 A2 | B4 B2 e2 | e2 e2!ff! e2 c2 | B2 f2 edcB | B2 g2 f2 ee | %141
w: re- xit _|ter- ti- a|di- * e se-|cun- dum scrip-|tu- ras, et as-|cen- * dit * in *|coe- lum se- det ad|
 d2 ee!>(! c4!>)! | d4 z4 | z2 B2 e2 d2 | c2 c2 f2 e2 | d2 d2 c2 B2 | B4 B2 e2- | e2 c4 c2 | %148
w: dex- ter- am Pa-|tris,|ven- tu- rus|est cum glo- ri-|a ju- * di|ca- re vi-|* vos et|
 B4 B4 | B4 z4 | z8 | z2 B2 e2 d2 |!>(! c8!>)! | !fermata!=B8 ||!pp! z8 | F2 F2 F2 FF | %156
w: mor- tu-|os||non e- rit|fi-|nis.||San- ctum Do- mi- num|
 G2 G2 G2"^cresc." G2 | A2 F2 G2 A2 | B2 c2 BAGF | E4 F2 F2 | F2 G2 z4 | z8 | z4 e2 d2 | %163
w: et vi- vi- fi-|can- tem qui ex|Pa- tre fi- * li- *|o- que pro-|ce- dit.||si- mul|
 c2 c2 f2 e!f!e | dcBB g2 f2 | e2 d2 c2 c2 | c2 cc c2 =B2 | c4 z4 ||[M:3/4] z6 | z6 | z6 | z6 | %172
w: a- do- ra- tur et|con- glo- ri- fi- ca- tur,|qui lo- cu- tus|est per pro- phe- *|tas.|||||
 z6 | z4 B2 | e4- ed | c2 B2 A2 | AG AB cd | e4 e2 | z2 B2 B2 | e4 d2 | c2 c2 BA | AG G2 z2 | z6 | %183
w: |ec-|cle- * si-|am _ con-|fi- te- or u- num- bap-|tis- ma|in re-|mis- si-|o- nem pec- ca-|to- * rum,||
!ff! z2 B2 B2 | e4 d2 | c4!>(! B2 |"^rit." A4 A2!>)! | G6 |"^a tempo" F4!f! B2 | g3 f ed | e4 de | %191
w: re- sur-|re- cti-|o- nem|mor- tu-|o-|rum. Et|vi- * * *|tam ven- *|
 f3 e dc | B6 | e2 ed cf | e6 | e2 dc d2 |!>(! e6!>)! | !fermata!e6 |] %198
w: tu- * * *|ri|sae- * * cu- li|A-|||men.|
[M:4/4]!p!"^Adagio"[Q:1/4=60] E4 G2!<(! A2!<)! |!>(! B2!>)! c2 B4 | F4 A2 B2 | c2 d2 c4 | %202
w: San- * *|* * ctus,|San- * *|* * ctus,|
 c4 d2 e2 | e2 f2!f! d4 | e4 d2 c2 | B4 c4 |!pp!!>(! A8-!>)! | %207
w: San- * *|* * ctus|Do- mi- nus|De- us|Sa-|
 A2 GF"^Allegro maestoso"[Q:1/4=120] !fermata!G4 || z8 |!ff! z4 B4 | c2 d2 e2 ee | g2 f2 e2 d2 | %212
w: * ba- * oth.||et|ter- ra glo- ri- a|tu- * a, ho-|
 c2 c2 c2 f2 | e2 d2 c2!>(! d2!>)! | !fermata!e8 |][M:4/4]!p!"^Larghetto" B4 G2"^Soli" E2 | %216
w: san- na in ex-|cel- * * *|sis.|Be- * ne-|
 F3 G/A/ G2 B2 | c2 B2 A2 G2 | F2 F2 F2 B2 | =A2 Bc B2 B2 | B=ABc B2 f2 | fedc d2 c2 | B4 z4 | z8 | %224
w: di- * * ctus qui|ve- * nit in|no- mi- ne _|Do- mi- * ni, qui|ve- * * * nit in|no- * mi- ne Do- mi-|ni.||
 z8 | z8 | z4 z2"^Tutti" e2 | d2 c2 B2 g2 | f2 e2 d2 e2 | e2 e2 e2 f2 |!>(! d8!>)! | !fermata!e8 |] %232
w: ||Ho-|san- * na, ho-|san- * na, ho-|san- na- in ex-|cel-|sis.|
[M:4/4]!p!"^Larghetto" E4!<(! G2 A2!<)! | B2 c2 BAGF |!>(! E6!>)! D2 |!<(! C4!<)! E2 =E2 | %236
w: A- * *|* * * * gnus *|De- *|i, qui _|
 F2 G2 A2 B2 | c6 BA | A2 G2 G2 G2 | A2 A2!pp!!>)!!>(! B4 |!p! c8 || F4!<(! A2 B2!<)! | %242
w: tol- * lis pec-|ca- ta _|mun- di, mi- se-|re- re no-|bis.|A- * *|
 c2 d2 edcB |!>(! A6!>)! G2 | F4 z2 G2 | G4 G2 G2 |!<(! A2 B2!<)! c2 d2 | e4 e2 B2 | e4 e4 | %249
w: * * gnus _ _ _|De- *|i qui|tol- lis pec-|ca- * ta _|mun- di, mi-|* se-|
 e6 d2 |!>(! e8!>)! | !fermata!d8 || %252
w: re- re|no-|bis.|
!ff! e4 B2"^Adolfo Kaim was born on June 15, 1825 at Schelkiegen near Ulm in Germany.One of the leaders of the Caecilian movement in Württemberg, he died at Biberachon the Rhine on August 4, 1887.  The Missa \"Jesu Redemptor” is one of a number of published masses, and there are other church works as well.This Mass was sung on Christmas Day, 1878, in St. Joseph Church, Detroit" G2 | %253
w: A- * gnus|
 B2 A2 G2 E2 | DEFG B A2 G | F3 G/A/ G4 | z2 B2 e2 d2 | c4 f2 e2 | d4 e2 c2 | B8 | %260
w: De- * i, qui|tol- * lis pec- ca- * ta|mun- * * di;|do- * *|* na _|no- bis _|pa-|
!pp! B4!<(! G2!<)!"^morendo." G2 | G2!>(! G2!>)! A4 | !fermata!G8 |] %263
w: cem, do- na|no- bis pa-|cem.|
V:2
!p!!<(! E6!<)! E2 | E2 E2 (D4 |!>(! C2 D>)!>)!E E3!p! z | (F4 A2) A2 | G2 F2 (F4 | %5
w: Ky- ri-|e e- le-|* * i- son,|Ky- * ri-|e e- le-|
 E3) D!mf! E2 (GF | G2) G2 EF!>(! G2 |"^ritard." F2!>)!!pp! (E2 ED/C/) !fermata!D2 || %8
w: * i- son, Ky- *|* ri- e- * e-|le- i- * * * son.|
!mf! z2 (B,2 E2) D2 |!<(! E4!<)! _A2 A2 |!f! A2 (GF) G4 | (G2 F2) G2 G2 | E2 =E2 F4 | F4 E2 (EF) | %14
w: Chri- * ste,|Chri- ste e-|le- i- * son,|Chri- * ste e-|le- i- son,|Chri- ste e- *|
"^ritard." G6!pp!!>)!!>(! G2 | !fermata!G8 ||!mf! (G4 F2) E2 | (D2 F2 =E2) E2 | (F2 C2 D=E F2) | %19
w: le- i-|son.|Ky- * ri-|e * * e-|le- * * * *|
 (F2 =ED)!p! E4 | C2 C2 C2 E2 | E3 E E4 |!f! E2 E2 A2 A2 | A2 (GF) G4 | (G2 F2 G2) G2 | %25
w: i- * * son,|Ky- ri- e e-|le- i- son,|Ky- ri- e e-|le- i- * son,|Ky- * * ri-|
 (E2 =E2) F2 F2 | (F4 E2) E2 |!>(! (E2 D!>)!C) D4 | E4 z2"^morendo"!<)!!<(! E2 |!>(! E8!>)! | %30
w: e, _ Ky- ri-|e _ e-|lei- * * *|son, e-|lei-|
 !fermata!E8 |][M:4/4] E2 E2 E2 E2 | E2 E2 DD D2 | C2 E2 E2 D2 | (D3 E)!ff! E2 B2 | G2 G2 E2 =EE | %36
w: son|Et in ter- ra|pax ho- mi- ni- bus|bo- nae vo- lun-|ta- * tis, lau-|da- mus te, be- ne-|
 F2 FF F2 FF | E6 A2 | G2 G2 G2 G2 | A4 (G2 F2) | E4 z4 |!p!!p! E2 EE E2 ED | E2 E2 E2 E2 | %43
w: di- ci- mus te, a- do-|ra- mus|te, glo- ri- fi-|ca- mus *|te.|Gra- ti- as a- gi- mus|ti- bi pro- pter|
 E2 E2 D2 DD | C2 D>E E4 | z8 | z4 E2 AG | F2 BA G>G G2 |!mf! GF=EG F_E D2 | E2 E2 E>E AG | %50
w: mag- nam glo- ri- am|tu- * * am.||De- us _|Pa- ter om- ni- po- tens.|Do- * mi- ne fi- * li|u- ni- ge- ni- te _|
 FGFE DE F2 | E4 E4 | G2 FE E2 D2 | A2 GF E2!f! D2 | E4 A2 A2 | (A2 GF) !fermata!G4 || z8 |!p! z8 | %58
w: Je- * * * * * su|Chri- ste.|Do- mi- ne De- us|A- gnus * De- i|Fi- li- us|Pa- * * tris.|||
 F2 F2 E2 D2 | D4 D2 E2 |!<(! F2 F!<)!F G2 G2 | A2 A2 A2 AA | A2 A2 F2 F2 | E2 E2 (A2 GF) | %64
w: mi- se- re- re|no- bis. Qui|tol- lis pec- ca- ta|mun- di, sus- ci- pe|de- pre- ca- ti-|o- nem no- * *|
 E2 E2 E2 =EE | F2 AA A4- | A2 A2 F2 F2 | E4!>(! E4!>)! | (E2 DC) !fermata!D4 || z8 | z8 | z8 | %72
w: stram. Qui se- des ad|dex- te- ram Pa-|* tris mi- se-|re- re|no- * * bis.||||
 z4 E4 | (G2 A2) B2 c2 | BAGF E3 A | G4 G2 G2 | F2 =E2 F2 F2 | F2 B2 B2 BB | G2 G2 A2 A2 | %79
w: tu|so- * lus al-|tis- si- mus _ Je- su|Chri- ste cum|san- cto spi- ri-|tu in glo- ri- a|De- i Pa- tris|
 (F6 G!>(!A)!>)! | !fermata!G8 |][M:4/4]!mf!!<(! E4!<)! E2 F2 | G2 E2 D2 DD | C2 DE EDCD | %84
w: A- * *|men.|Pa- trem om-|ni- po- ten- tem fac-|to- rem * coe- * li et|
 D2 E2 E2 c2 | B2 B=A BFGA | G2 AF G=A B2 | B=AGA!f! B4 | G2 GG G2 B2 | B2 B2 B2 BB | F2 F2 A2 A2 | %91
w: ter- ra vi- si-|bi- li- um om- * ni- um|et in- * vi- * si|bi- * * li- um,|Do- mi- num Je- sum|Chri- stum fi- li- um|De- i u- ni-|
 A2 GF G4 | G2 F2!<(! B2!<)! B2 | B2 B2 =A2 A2 | B=AGF E2 E2 | D2 F2!f! F4 | G4 G2 G2 | F4 F4 | %98
w: ge- ni- * tum.|Et ex Pa- tre|na- tum an- te|om- * * * ni- a|sae- cu- la.|De- um de|De- o|
 A4 A2 A2 | G3 F E4 | G4 G4 | (G2 F2) E2 A2 | A2 G2 A4 | G6 z2 || z8 | z8 |!mf! z2 (E2 ED CD/E/) | %107
w: lu- men de|lu- mi- ne,|De- um|ve- * rum de|De- o ve-|ro.|||Pa- * * * * *|
 D6 z2 | z4 F2 F2 | F2!f! G2 G2 GG | F3 F F2 F2 | =A2 A2 G2 GG | (G2 ^F=E) F2 G2 | G4 G2 G2 | %114
w: tri.|fa- cta|sunt. Qui pro- pter nos|ho- mi- nes et|pro- pter nos- tram sa-|lu- * * tem de-|scen- dit de|
 F4!>)!!>(! !fermata!F4 ||[M:3/4]!pp! E2 E2 E2 | E3 A!<(! G!<)!G |!>(! G2!>)! G2 E2 | F2 G2 GG | %119
w: coe- lis.|Et in- car-|na- tus est de|Spi- ri- tu|san- cto, ex Ma-|
 FE D2 (F2 | F)F FF =AB | (G2!>(! F2)!>)! F2 |!p! F2 D2 D2 | D4 E2 | F4 F2 | (F2 ED) E2 | %126
w: ri- * a vir-|* gi- ne et ho- mo|fa- * ctus|est. Cruc- ci-|fi- xus|e- ti-|am _ _ pro|
!<(! E2!<)! E2 =E2 | F>F C2!f! E2 | E4!>(! E2!>)! | z2 E2 =E2 |!>(! F4 F2 | D4!>)!!ppp! D2 | %132
w: no- bis sub|Pon- ti- o Pi-|la- to,|pas- sus|et se-|pul- tus|
!p! !fermata!=E6 ||[M:4/4] C4 C2!<(! C2!<)! | C4 (=E2 F2) | (F2 D2) =E2 E2 | (F3 =E) F2 A2 | %137
w: est.|Et re- sur-|re- xit _|ter- * ti- a|di- * e se-|
 (A2 F2) G2 G2 | A2 A2!ff! A2 A2 | F4 F2 F2 | G2 B2 B=AGF | F2 GG!>(! F4!>)! | F2!mf! F2 B2 _A2 | %143
w: cun- * dum scrip-|tu- ras, et as-|cen- dit in|coe- lum se- * det ad|dex- ter- am Pa-|tris, et i- te-|
 G2 F2 G2 G2 | G2 FE D2 C2 | B,2 (F2 A2) A2 | (A2 GF) G4 | A4 A2 (A2- | A2 G2) F2 F2 | G4 z4 | %150
w: rum ven- tu- rus|est cum * glo- ri-|a, ju- * di-|ca- * * re|vi- vos et|_ _ mor- tu-|os|
 z2 E2 (A2 G2) | (F2 B2) (B4 | B2 AG F4) |!pp! !fermata!G8 || E2 E2 E2 EE | E2 E2 D2 DD | %156
w: non e- *|rit * fi-||nis.|Et in Spi- ri- tum|San- ctum Do- mi- num|
 D2 D2 =E2 E2 | F2 D2 E2 E2 | E2 E2 EB, B,2 | E4 E2 D2 | D2 E2 z4 | z2 E2 A4 | AGFE G2 B2 | %163
w: et vi- vi- fi-|can- tem qui ex|Pa- tre fi- * li-|o- que pro-|ce- dit.|et fi-|li- * o * si- mul|
 A3 G F2 F!f!F | FFBB B2 B2 | G2 G2 E2 =E2 | F2 AA G4 | G4 z4 ||[M:3/4] z6 | z6 | z6 | z4 B,2 | %172
w: a- do- ra- tur et|con- glo- ri- fi- ca- tur,|qui lo- cu- tus|est per pro- phe-|tas.||||et|
 B4 A2 | G2 F2 ED | E2 FG A2 | G2 G2 E2 | E2 FG A2 | G4 G2 | G4 F2 | FE A2 A2 | AG FE D2 | %181
w: a- po-|sto- li- cam ec-|cle- si- * am|con- fi- te-|or u- num bap-|tis- ma|in re-|mis- si- o- nem|pec- * ca- * to-|
 E2 E2 B2 | (B2 AG A2) | G2!ff! B2 B2 | G4 B2 | (A2 E2)!>(! E2 | F4 F2 | (E2 B,2!>)! C2) | %188
w: rum et ex-|spe- * * *|cto, re- sur-|re- cti-|o- * nem|mor- tu-|o- * *|
 D4!f! B2 | B6 | (c3 B AG | F2 B2) B2 | (B3 A G)F | E4 EA | G2 (A2 G2 | FG A4 | A2 G2 F2) | %197
w: rum. Et|vi-|tam _ _ _|_ _ ven-|tu- * * ri|sae- cu- *|li. A- *|||
!>(! !fermata!G6!>)! |][M:4/4]!p! (B,4!<(! E4!<)! |!>(! E4)!>)! E4 | (C4 F2 G2 | A2 F2) =E4 | %202
w: men.|San- *|* ctus,|San- * *|* * ctus,|
 (F6 G2 | G2 =A2)!f! B4 | G4 B2 A2 | G4 A4 |!>(! (A3 G)!>)!!pp! F4 |!ff! !fermata!E8 || E4 G2 A2 | %209
w: San- *|* * ctus|Do- mi- nus|De- us|Sa- * ba-|oth.|Ple- ni sunt|
 (B2 c2) BAGF | F2 B2 B2 BB | B4 G2 G2 | E2 E2 E2 A2 |!>(! F8!>)! | !fermata!G8 |] %215
w: coe- * li _ et _|ter- ra glo- ri- a|tu- a, ho-|san- na in ex-|cel-|sis.|
[M:4/4]!p! G4 E4 | (E2 D2) E2 G2 | E4 EF E2 | E2 DC D4 | E2 E2 DFGF | (E2 DE) D2 EF | %221
w: Be- ne-|di- * ctus qui|ve- nit * in|no- mi- * ne|Do- mi- ni _ qui _|ve- * * nit in *|
 G2 GG B2 =A2 | B4 E2 G2 | B4 B2 F2 | (E2 =E2) F2 c2 | B2 AG A2 c2 | B3 A G2 G2 | (B2 A2) G2 B2 | %228
w: no- mi- ne Do- mi-|ni.. Be- ne-|di- ctus qui|ve- * nit in|no- mi- * ne _|Do- mi- ni. Ho-|san- * na, ho-|
 BFG=A B2 G2 | G2 G2 A2 A2 |!>(! F8!>)! | !fermata!G8 |][M:4/4]!p! (E4 E2 F2 | G4 F2) C2 | %234
w: san- * * * na, ho-|san- na- in ex-|cel-|sis.|A- * *|* * gnus|
!>(! (C4!>)! =B,4) | C4 z4 | z2 C2 (F2 _E2) | E2 =EF G2 F2 | F2 =E2 E2 E2 | F2 F2!pp!!>)!!>(! F4 | %240
w: De- *|i,|qui tol- *|lis pec- * ca- ta|mun- di, mi- se-|re- re no-|
!p! =E8 || (C4!<(! F2 G2!<)! | A4) G4 |!>(! (F4!>)! E4) | D4 z2 D2 | E4 E2 E2 | %246
w: bis.|A- * *|* gnus|De- *|i, qui|tol- lis pec-|
!<(! (F2 G2)!<)! A4 | (A2 GF) G4 | z2 (G2 c2) B2 | (A2 G2) F4 |!>(! (G6!>)! =A2) | !fermata!B8 || %252
w: ca- * ta|mun- * * di,|mi- * se-|re- * re|no- *|bis.|
!ff! G6 E2 | (D2 F2) E2 B,2 | B,2 DE F2 E2 | (E2 D2) E4 | (G2 F2 G2) G2 | (E2 =E2) F4 | (F4 E4 | %259
w: A- gnus|De- * i, qui|tol- lis pec- ca- ta|mun- * di;|do- * * na|no- * bis|pa- *|
 E4 DC D2) | E4!pp!!<(! E2!<)! E2 | E2!>(! E2!>)! E4 | !fermata!E8 |] %263
w: |cem, do- na|no- bis pa-|cem.|
V:3
!p! (G4!<(! B2)!<)! A2 | G2 A2 (F2 BA |!>(! G2 B>)!>)!B B3!p! z | (d4 e2) B2 | B2 =A2 (B2 _A2 | %5
w: Ky- * ri-|e e- le- * *|* * i- son,|Ky- * ri-|e e- le- *|
 G2 B)B!mf! B2 (ed | c2) B2 cd!>(! e2 |"^ritard." c2!>)!!pp! B2!mf! !fermata!B4 || %8
w: * * i- son, Ky- *|* ri- e- * e-|le- i- son.|
 (G2 F2) (G=A B2) |!<(! (c2 B2)!<)! _A2 B2 |!f! B3 B B2 (B2 | e2 d2) c2 B2 | c2 B2 A2 (=A2 | %13
w: Chri- * ste, _ _|Chri- * ste e-|le- i- son, Chri-|* * ste e-|le- i- son, Chri-|
 B4) B2 (cd) |"^ritard." (e4!>(! d2)!>)!!pp! c2 | !fermata!d8 ||!mf! (e4 d2) c2 | (d4 c2) z2 | z8 | %19
w: * ste e- *|le- * i-|son.|Ky- * ri-|e, _||
 c6 B2 | (A2 G2) (F2 G2) | A3 A G4 |!f! c2 B2 A2 B2 | B3 B B2 (B2 | e2) d2 c2 (B2 | c2) B2 A2 =A2 | %26
w: Ky- ri-|e _ e- *|le- i- son,|Ky- ri- e e-|le- i- son, Ky-|* ri- e, Ky-|* ri- e e-|
 (B2 A2 G2 A2) |!>(! (F6!>)! GA) | G4 z2"^morendo"!<)!!<(! B2 |!>(! c8!>)! | !fermata!B8 |] %31
w: le- * * *|i- * *|son, e-|lei-|son.|
[M:4/4]!mf! G2 G2 B2 A2 | G2 A2 FFBA | G2 G2 B2 B2 | B4!ff! B2 B2 | B2 B2 A2 cB | A2 =AA B2 AA | %37
w: Et in ter- ra|pax ho- mi- ni- bus _|bo- nae vo- lun-|ta- tis, lau-|da- mus te, be- ne-|di- ci- mus te, a- do-|
 (G2 AB A2) B2 | B2 c2 c2 e2 | (defe d2) d2 | c4 z4 | z4 c2 cc | c2 c2 c2 c2 | c2 A2 F2 BA | %44
w: ra- * * * mus|te, glo- ri- fi-|ca- * * * * mus|te.|a- gi- mus|ti- bi pro- pter|mag- nam glo- ri- am|
 (G2 B2) B2 B2- | B2 cB AABA | GBed c2 de | ed/c/ dd e>e e2 | z4!mf! z2 (B2 | edc)B A>A A2 | %50
w: tu- * am. Do-|* mi- ne De- us Rex coe-|le- * stis _ De- us _|Pa- * * ter om- ni- po- tens.|u-|* * * ni- ge- ni- te|
 z4 B2 B2 | B4 B4 | e2 dc c2 =B2 | c2 c2 B2!f! B2 | B4 B2 B2 | B4 !fermata!B4 ||!p! z2 B2 e2 dd | %57
w: Je- su|Chri- ste.|Do- mi- ne De- us|A- gnus De- i|Fi- li- us|Pa- tris.|Qui tol- lis pec-|
 c2 B2 d2 e2 | e2 d2 c2 B2 | =B4 B2 c2 |!<(! c2 c!<)!c e2 e2 | e2 e2 e2 ff | B2 B2 B2 B2 | %63
w: ca- ta mun- di,|mi- se- re- re|no- bis. Qui|tol- lis pec- ca- ta|mun- di, sus- ci- pe|de- pre- ca- ti-|
 B2 c2 d4 | c2 z2 z2 c2 | f2 ee (d2 c2) | B2 z2 z4 | e2 d2 c2!>(! c2!>)! | %68
w: o- nem no-|stram. ad|dex- te- ram Pa- *|tris|mi- se- re- re|
 B4!pp!!pp! !fermata!B4 || z8 | z4 B4 | c2 d2 e2 f2 | edcB B2 A2 | (B4 e4) | d4 z2 (B2- | %75
w: no- bis.||tu|so- lus san- ctus|Do- * mi- * nus, tu|so- *|lus Chri-|
 B2 =B2) c2 c2 | c2 c2 c2 c2 | B2 cd e2 dd | c2 c2 c2 c2 |!>(! B8!>)! | !fermata!B8 |][M:4/4] z8 | %82
w: * * ste cum|san- cto spi- ri-|tu in _ glo- ri- a|De- i Pa- tris|A-|men.||
 z8 | z4!mf! z2 B2- | B2 B2 e2 e2 | (d2 e2) dfed | e2 z2 z4 | c2 fe e2!f! d2 | e2 ee e2 e2 | %89
w: |vi-|* si- bi- li-|um _ om- * ni- *|um.|et in * u- num|Do- mi- num Je- sum|
 f2 f2 f2 ed | c2 B2 A2 f2 | f2 ed e4 |!p!!p! e2 d!<(!c B2!<)! c2 | d2 e2 f2 ^f2 | g=fed c2 c2 | %95
w: Chri- stum fi- li- um|De- i u- ni-|ge- ni- * tum.|Et ex * Pa- tre|na- tum an- te|om- * * * ni- a|
 B2 =A2!f! B4 | B4 B2 B2 | B4 d4 | e4 e2 e2 | e3 B B4 | c4 c4 | =B4 c2 e2 | d2 e2 f4 | e6 z2 || %104
w: sae- cu- la.|De- um de|De- o|lu- men de|lu- mi- ne,|De- um|ve- rum de|De- o ve-|ro.|
 E3 E E2 F2 | G2 A2 BBcd | edcB =A2 A2 | B2 B2 d2 e2 | f2 (g2 fe)dc | d2!f! B2 B2 BB | B3 d d2 d2 | %111
w: Ge- ni- tum non|fa- ctum con- sub- stan- ti-|a- * lem * Pa- tri,|per quem om- ni-|a fa- * * cta *|sunt. Qui pro- pter nos|ho- mi- nes et|
 c2 c2 c2 cc | cB=AG A2 B2 | c4 B2 Bc | d2!>(! c2!>)! !fermata!d4 ||[M:3/4]!pp! G2 B2 c2 | %116
w: pro- pter nos- tram sa-|lu- * * * tem de-|scen- dit de *|coe- * lis.|Et in- car-|
 B2 e2!<(! e!<)!B |!>(! c2!>)! B2 AG | FB B2 BB | =AB/c/ d2 (d2 | e)d/c/ dd cB | %121
w: na- tus est de|Spi- * ri- *|san- * cto, ex Ma-|ri- * * a vir-|* gi- * ne et ho- mo|
 (e2!>(! d2)!>)! c2 |!p! d2 B2 B2 | (B2 =A2) G2 | B4 B2 | B4 B2 |!<(! c2!<)! c2 c2 | c>c A2!f! G2 | %128
w: fa- * ctus|est. Cruc- ci-|fi- * xus|e- ti-|am pro|no- bis sub|Pon- ti- o Pi-|
 A4!>(! A2!>)! | z2 c2 c2 |!>(! c4 c2 | (c2!>)! =B=A)!ppp! B2 | !fermata!c6 || %133
w: la- to,|pas- sus|et se-|pul- * * tus|est.|
[M:4/4] c4 c2!<(! B2!<)! | (B2 A2) (G2 F2) | G4 c2 B2 | (A2 B2) c2 c2 | (e2 B2) e2 _d2 | %138
w: Et re- sur-|re- * xit _|ter- ti- a|di- * e se-|cun- * dum scrip-|
 _d2 c2!ff! c2 e2 | (e2 =d2) c2 d2 | edcB c2 Bc | B2 BB!>(! (B2 =A2)!>)! | B4!mf! z2 B2 | %143
w: tu- ras, et as-|cen- * dit in|coe- * lum * se- det ad|dex- ter- am Pa- *|tris. ven-|
 (e2 d2) (c2 B2) | A4 z4 | z2 (d2 e2) f2 | e4 e4 | c4 e2 e2 | (e4- ed)cd | e2 (B2 e2) d2 | %150
w: tu- * rus _|est,|ju- * di-|ca- re|vi- vos et|mor- * * tu- *|os cu- * jus|
 (c2 B2) cd e2 | (e2 d2) e4 | (e6 dc) | !fermata!d8 || c2 c2 c2 cc | B2 B2 B2 BB | =B2 B2 c2 c2 | %157
w: reg- * ni * non|e- * rit|fi- * *|nis.|Et in Spi- ri- tum|San- ctum Do- mi- num|et vi- vi- fi-|
 c2 _B2 B2 A2 | G2 Ac eded | c4 c2 B2 | B2 B2 e2 d2 | (c2 e3 d)cB | B2 AG B2 z2 | z4!f! B2 =A2 | %164
w: can- tem qui ex|Pa- tre * fi- * li- *|o- que pro-|ce- dit. Qui cum|Pa- * * tre et|Fi- li- * o|con glo-|
 B2 f2 e2 d2 | c2 B2 A2 B2 | A2 cc (e2 d2) | c4 z4 ||[M:3/4] z6 | z4 c2 | f4 e2 | (d2 c2) B2 | %172
w: ri- fi- ca- tur|qui lo- cu- tus|est per pro- phe- *|tas.||ca-|tho- li-|cam _ et|
 Bc de ed | e2 B2 A2- | AG AB cd | e2 e2 c2 | B2 z2 B2 | B2 B2 BB | e4 d2 | c4 B2 | A4 B2 | %181
w: a- * * * po- *|sto- li- cam|_ ec- cle- si- am _|con- fi- te-|or bap-|tis- ma in re-|mis si-|o- nem|pec- ca-|
 B2 B2 BB | e4- ed |!ff! e2 B2 B2 | B4 B2 | c4!>(! e2 | c4 B2!>)! | B6 | B4!f! B2 | (e3 d cB) | %190
w: to- rum et ex-|spe * *|cto, re- sur-|re- cti-|o- nem|mor- tu-|o-|rum. Et|vi- * * *|
 A4 B2 | (Bc de f2 | fe d2 e)B | B4 Ac | B2 (c2 B2 | B6- | B6) |!>(! !fermata!B6!>)! |] %198
w: tam ven-|tu- * * * *|* * * * ri|sae- cu- *|li. A- *|||men.|
[M:4/4]!p! (G4 B2!<(! A2!<)! |!>(! G2!>)! A2) G4 | (A4 c2 e2 | e c2 =B) c4 | (=A4 B4 | %203
w: San- * *|* * ctus,|San- * *|* * * ctus,|San- *|
 c3 f)!f! f4 | B4 B2 e2 | e4 e4 |!>(! ecfe ed!>)!c!pp!B | !fermata!B8 || G4 B2 B2 | (B2 e2) d2 d2 | %210
w: * * ctus|Do- mi- nus|De- us|Sa- * * * ba- * * *|oth.|Ple- ni sunt|coe- * li et|
 c2 f2 e2 dd | (e2 d2) c2 B2 | A2 A2 A2 c2 |!>(! B8!>)! | !fermata!B8 |][M:4/4] (e4 B2) G2 | %216
w: ter- ra glo- ri- a|tu- * a, ho-|san- na in ex-|cel-|sis.|Be- * ne-|
 B4 E2 e2 | (A2 G2) cd e2 | B2 B2 B4 | c2 B=A B2 ed | (c2 B=A) B2 cd | e2 ee f2 f2 | d4 e2 e2 | %223
w: di- ctus qui|ve- * nit * in|no- mi- ne|Do- mi- * ni, qui _|ve- * * nit in _|no- mi- ne Do- mi-|ni.. Be- ne-|
 (e2 d2) e2 d2 | c4 c2 =e2 | =e2 f2 (c2 _e2) | e2 d2 e2 e2 | e4 e2 e2 | (d2 c2) B2 B2 | %229
w: di- * ctus qui|ve- nit in|no- mi- ne _|Do- mi- ni. Ho-|san- na, ho-|san- * na, ho-|
 B2 B2 c2 c2 |!>(! B8!>)! | !fermata!B8 |][M:4/4]!p! (G4 c4 | e4 c2) c2 |!>(! (c2 G4!>)! F2) | %235
w: san- na- in ex-|cel-|sis.|A- *|* * gnus|De- * *|
!<(! E2 G2!<)! (c2 _B2) | A2 c2 (c2 e2 | c2 BA) c4 | c2 c2 c2 c2 | c2 c2!>(! BAG!>)!!pp!F | %240
w: i, qui tol- *|lis pec- ca- *|* * * ta|mun- di, mi- se-|re- re no- * * *|
!p! G8 || (A4!<(! c2 e2!<)! | e2 B2) (B2 e2) |!>(! (e2 d2!>)! B4) | B4 z2 B2 | c4 c2 c2 | %246
w: bis.|A- * *|* * gnus _|De- * *|i, qui|tol- lis pec-|
!<(! (c2 e2)!<)! (e2 B2) | B4 B4 | z4 z2 (G2 | c2) B2 A2 B2 |!>(! (B4!>)! c4) | !fermata!B8 || %252
w: ca- * ta *|mun- di,|mi-|* se- re- re|no- *|bis.|
!ff! (B4 e2) B2 | B4 B2 G2 | AGBB B3 B | B4 B2 (B2 | e2 d2 c2) B2 | (c2 B2) (B2 =A2 | %258
w: A- * gnus|De- i, qui|tol- * lis pec- ca- ta|mun- di; do-|* * * na|no- * bis _|
 B2) (_A2 G2 A2 | F6 GA) |!pp! G4!<(! B2!<)! B2 | c2!>(! c2!>)! c4 | !fermata!B8 |] %263
w: _ pa- * *||cem, do- na|no- bis pa-|cem.|
V:4
!p!!<(! E,6!<)! C,2 | B,,2 A,,2 (B,,4 |!>(! C,2 B,,>)!>)!E, E,3!p! z | (B,4 A,2) F,2 | %4
w: Ky- ri-|e e- le-|* * i- son,|Ky- * ri-|
 E,2 C,2 (B,,2 D,2 | E,2 F,)F, E,2 z2 |!mf! z2 G,2 (A,2!>(! E,2 | %7
w: e e- le- *|* * i- son,|e- le- *|
"^ritard." F,2)!>)! (G,!pp!A,)!mf! !fermata!B,4 || E,2 D,2 (C,2 B,,2) | %9
w: * i- * son.|Chri- * ste, _|
!<(! (A,,2 G,,2)!<)! F,,2 B,,2 |!f! E,3 E, E,4 | z4 z2 G,2 | A,2 G,2 F,4 | (B,2 A,2) G,2 A,2 | %14
w: Chri- * ste e-|le- i- son,|e-|le- i- son,|Chri- * ste e-|
"^ritard." G,6!pp!!>)!!>(! G,2 | !fermata!G,8 ||!mf! z8 | =B,3 B, C2 _B,2 | (A,4 G,2) F,2 | %19
w: le- i-|son.||Ky- ri- e e-|le- * i-|
 C,4!p! z2 (C,2 | F,2) =E,2 F,2 _E,2 | A,,3 A,, E,4 |!f! A,2 G,2 F,2 B,,2 | E,3 E, E,4 | %24
w: son, Ky-|* ri- e e-|le- i- son,|Ky- ri- e e-|le- i- son,|
 z4 z2 (G,2 | A,2) G,2 F,2 F,2 | (B,,4 C,2 A,,2) |!>(! B,,8!>)! | E,4 z2"^morendo"!<)!!<(! E,2 | %29
w: Ky-|* ri- e e|le- * *|i-|son, e-|
!>(! A,,8!>)! | !fermata!E,8 |][M:4/4]!mf!!mf! E,2 E,2 E,2 C,2 | B,,2 A,,2 B,,B,, B,,2 | %33
w: lei-|son.|Et in ter- ra|pax ho- mi- ni- bus|
 C,2 C,2 B,,2 B,,2 | E,4!ff! E,2 B,2 | E,2 G,2 A,2 G,G, | F,2 F,F, B,,2 C,D, | (E,2 F,G, A,2) F,2 | %38
w: bo- nae vo- lun-|ta- tis, lau-|da- mus te, be- ne-|di- ci- mus te, a- do-|ra- * * * mus|
 E,2 C,2 C,2 C,2 | F,4 (G,2 G,,2) | C,4 z4 | z8 | z4 C,2 C,2 | A,,2 A,,2 B,,2 B,,B,, | %44
w: te, glo- ri- fi-|ca- mus *|te.||pro- pter|mag- nam glo- ri- am|
 (C,2 B,,2) E,4 | G,F,=E,G, F,_E,D,D, | E,2 G,2 A,G,F,E, | B,2 B,B, E,>E, E,2 | z8 | %49
w: tu- * am.|Do- * mi- ne De- us Rex coe-|le- stis De- * us _|Pa- ter om- ni- po- tens.||
 z4!mf! A,G,F,E, | D,(E,D,C, B,,2) C,D, | E,4 E,4 | C,2 D,E, G,2 G,2 | F,2 G,A, B,2 B,!f!A, | %54
w: u- ni- ge- ni-|te Je- * * * su _|Chri- ste.|Do- mi- ne De- us|A- gnus * De- i *|
 G,4 F,2 B,,2 | E,4!p! !fermata!E,4 || E,4 G,2 B,B, | A,2 G,2 F,2 E,2 | B,2 B,2 B,2 B,2 | %59
w: Fi- li- us|Pa- tris.|Qui tol- lis pec-|ca- ta mun- di,|mi- se- re- re|
 G,4 G,2 C,2 |!<(! F,2 F,!<)!F, E,2 E,2 | A,2 A,2 A,G,F,E, | D,C,B,,C, D,2 D,2 | %63
w: no- bis. Qui|tol- lis pec- ca- ta|mun- di, sus- * ci- pe|de- * pre- * ca- ti-|
 E,2 C,2 (F,2 G,2) | C,2 z2 z4 | z8 | (B,,2 C,2) (D,2 B,,2) | E,4!>(! A,,4!>)! | %68
w: o- nem no- *|stram.||mi- * se- *|re- re|
 B,,4!pp!!ff! !fermata!B,,4 || (E,4 G,2) A,2 | B,2 C2 B,A,G,F, | (E,2 D,2) (C,2 =A,,2) | %72
w: no- bis.|Quo- * ni-|am tu so- * lus _|san- * ctus _|
 B,,2 _A,2 G,2 F,2 | (E,2 F,2) G,2 A,2 | B,>B, B,2 B,A,G,F, | (E,2 D,2) C,D,E,=E, | %76
w: Do- mi- nus, tu|so- * lus al-|tis- si- mus Je- * su _|Chri- * ste _ cum _|
 F,2 G,2 A,2 =A,2 | B,2 A,2 G,2 B,B, | C2 B,2 A,2 F,2 | (B,4 B,,4) |!>(! !fermata!E,8!>)! |] %81
w: san- cto spi- ri-|tu in glo- ri- a|De- i Pa- tris|A- *|men.|
[M:4/4] z8 |!mf! z4 (B,2 =B,2) | CB,A,G, F,2 B,,B,, | E,2 E,2 G,2 A,2 | B,2 CC B,A,G,F, | %86
w: |fa- *|cto- * rem * coe- li et|ter- ra vi- si|bi- li- um om- * ni- *|
 E,2 z2 z4 | F,2 F,2 B,2!f! B,2 | E,2 E,E, E,2 G,2 | B,2 B,2 B,,2 B,,B,, | C,2 D,2 F,2 D,2 | %91
w: um.|et in u- num|Do- mi- num Je- sum|Chri- stum fi- li- um|De- i u- ni-|
 E,3 E, E,4 | z8 | z8 |!p! z4 F,2 F,F, | B,,2 F,2!f! B,4 | E,4 E,2 E,2 | B,,4 B,4 | A,4 A,2 A,2 | %99
w: ge- ni- tum.|||om- ni- a|sae- cu- la.|De- um de|De- o|lu- men de|
 E,3 E, E,4 | C,4 C,4 | G,4 A,2 A,,2 | B,,2 [B,,B,]2 [B,,B,]4 | [E,B,]6 z2 ||!mf! z8 | z8 | %106
w: lu- mi- ne,|De- um|ve- rum de|De- o ve-|ro.|||
 z4!mf! F,4 | B,,4 B,,2 C,2 | D,2 (E,2 F,2) F,2 | B,2!f! E,2 E,2 E,E, | B,,3 B, B,2 B,2 | %111
w: Per|quem om- ni-|a fa- * cta|sunt. Qui pro- pter nos|ho- mi- nes et|
 F,2 F,2 E,2 D,C, | D,4 D,2 G,2 | C,4 D,2 E,2 | F,4!>)!!>(! !fermata!B,,4 || %115
w: pro- pter nos- tram sa-|lu- tem de-|scen- dit de|coe- lis.|
[M:3/4]!pp! E,2 E,2 A,2 | G,2 A,2!<(! E,!<)!E, |!>(! C,2!>)! E,2 A,E, | D,2 E,2 E,E, | %119
w: Et in- car-|na- tus est de|Spi- * ri- *|san- cto, ex Ma-|
 F,G,/A,/ B,2 (B,2 | C)B,/=A,/ B,B,, C,D, | (E,2!>(! F,2)!>)! F,,2 |!p! B,,2 B,2 =A,2 | %123
w: ri- * * a vir-|* gi- * ne et ho- mo|fa- * ctus|est. Cruc- ci-|
 (G,2 F,2) E,2 | D,4 D,2 | (E,3 F,) G,2 |!<(! A,2!<)! A,2 G,2 | F,>F, F,2!f! E,2 | %128
w: fi- * xus|e- ti-|am _ pro|no- bis sub|Pon- ti- o Pi-|
 A,,4!>(! A,,2!>)! | z2 A,,2 G,,2 |!>(! F,,4 F,,2 | G,,4!>)!!ppp! G,,2 |!p! !fermata!C,6 || %133
w: la- to,|pas- sus|et se-|pul- tus|est.|
[M:4/4]!p! C,4 C,2!<(! C,2!<)! | C,4 C,4 | C,4 C,2 C,2 | (F,2 G,2) A,2 F,2 | E,4 E,2 E,2 | %138
w: Et re- sur-|re- xit|ter- ti- a|di- * e se-|cun- dum scrip-|
 A,2 A,2!ff! A,2 A,2 | B,2 B,2 z4 | z4 F,2 G,=A, | B,2 E,E,!>)!!>(! F,4 | B,,4 z4 | z8 | z8 | %145
w: tu- ras, et as-|cen- dit.|se- det ad|dex- ter- am Pa-|tris.|||
 z2 (B,2 C2) D2 | E4 E,4 | A,4 A,,2 A,,2 | B,,4 B,,4 | E,2 (E,2 G,2) G,2 | (A,2 G,2) F,2 E,2 | %151
w: ju- * di-|ca- re|vi- vos et|mor- tu-|os cu- * jus|reg- * ni non|
 (B,3 A, G,2) G,2 | A,8 | !fermata!G,8 || z8 | z8 | G,2 G,2 C,2 C,2 | F,2 B,,2 E,2 C,2 | %158
w: e- * * rit|fi-|nis.|||et vi- vi- fi-|can- tem qui ex|
 B,,2 A,,2 G,,B,,E,F, | (G,2 A,2) F,2 B,2 | E,2 E,2 G,2 G,2 | (A,2 G,2 F,2) E,D, | E,2 E,2 E,2 z2 | %163
w: Pa- tre fi- * li- *|o- * que pro-|ce- dit. Qui cum|Pa- * * tre et|Fi- li- o|
 A,G,F,E, D,2 C,!f!C, | B,,C,D,D, E,2 B,2 | C2 G,2 A,2 B,,2 | F,2 F,F, (G,2 G,,2) | C,4 z2 G,2 || %168
w: a- * do- * ra- tur et|con- glo- ri- fi- ca- tur,|qui lo- cu- tus|est per pro- phe- *|tas. Et|
[M:3/4] C4 B,2 | A,2 G,2 F,E, | (D,2 B,,2) C,2 | (D,2 E,F,) G,A, | G,4 F,2 | (E,2 D,2) F,2 | %174
w: u- nam|san- ctam ca- *|tho- * li-|cam _ _ et _|a po-|sto- * li-|
 E,4 E,2 | E,4 A,2 | E,2 z2 B,2 | E,4 E,2 | z6 | z6 | z4 B,,B,, | (E,4 D,2 | C,4 B,,2) | %183
w: cam con-|fi- te-|or bap-|tis- ma,|||et ex-|spe- *||
!ff! E,2 B,2 B,2 | E,4 G,2 | A,4 G,2 | (F,2 C,2) D,2 | E,6 | B,,4 z2 |!f! z6 | (A,3 G, F,E,) | %191
w: cto, re- sur-|re- cti-|o- nem|mor- * tu|o-|rum.||vi- * * *|
 (D,3 C,) B,,C, | (D,C, B,,3) A,, | G,,4 A,,2 | B,,6 | ((B,,6 | [E,,E,]6)) | %197
w: tam _ ven- *|tu- * * ri|sae- cu-|li.|A-||
!>(! !fermata![E,,E,]6!>)! |][M:4/4]!p! (E,6!<(! C,2!<)! |!>(! B,,2!>)! A,,2) E,4 | (F,6 E,2 | %201
w: men.|San- *|* * ctus,|San- *|
 A,2 G,2) C,4 | (F,4 B,2 E,2 | C,2 F,2)!f! B,,4 | E,4 G,2 A,2 | E,4 A,4 |!>(! F,4!>)!!pp! B,,4 | %207
w: * * ctus,|San- * *|* * ctus|Do- mi- nus|De- us|Sa- ba-|
 !fermata!E,8 || E,4 E,2 F,2 | (G,2 A,2) B,2 B,2 | =A,2 B,2 G,2 F,F, | (E,2 B,,2) C,2 G,,2 | %212
w: oth.|Ple- ni sunt|coe- * li et|ter- ra glo- ri- a|tu- * a, ho-|
 A,,2 A,,2 A,,2 A,,2 |!>(! B,,8!>)! | !fermata!E,8 |][M:4/4]!p! z8 | z8 | z8 | z8 | z8 | z8 | z8 | %222
w: san- na in ex-|cel-|sis.||||||||
 (B,4 G,2) E,2 | (F,3 G,/A,/) G,2 B,2 | (C2 B,2) A,2 G,2 | F,2 F,2 F,4 | B,2 B,,2 E,2 E,2 | %227
w: Be- * ne-|di- * * ctus qui|ve- * nit in|no- mi- ne|Do- mi- ni. Ho-|
 A,,B,,C,D, E,2 z2 | z4 z2 E,2 | E,2 E,2 A,2 A,,2 |!>(! B,,8!>)! | !fermata![E,,E,]8 |] %232
w: san- * * * na,|ho-|san- na- in ex-|cel-|sis.|
[M:4/4]!p! (E,4 C,2 F,2 | E,2 C,2 F,2) G,A, |!>(! (G,4!>)! G,,4) | C,4 z2 C,2 | %236
w: A- * *|* * * gnus *|De- *|i, qui|
 (F,2 =E,2) F,2 G,2 | (A,2 G,F, =E,2) F,2 | C,2 C,2 C,2 C,2 | F,2 F,2!pp!!>)!!>(! _D,4 |!p! C,8 || %241
w: tol- * lis pec-|ca- * * * ta|mun- di, mi- se-|re- re no-|bis.|
 (F,6!<(! E,2!<)! | A,2 F,2) E,4 |!>(! (F,2 B,,2 E,2!>)! G,2) | B,4 z2 G,2 | C,4 C,2 C,2 | %246
w: A- *|* * gnus|De- * * *|i, qui|tol- lis pec-|
!<(! (F,2 E,2)!<)! (A,2 F,2) | E,4 E,4 | z8 | z4 z2 (B,,2 |!>(! E,2 D,2 C,2!>)! F,2) | %251
w: ca- * ta *|mun- di,||no-||
 !fermata![B,,F,]8 ||!ff! E,6 E,2 | (B,,2 D,2) E,2 E,2 | F,E,B,,E, D,2 E,2 | (B,2 B,,2) E,4 | %256
w: bis.|A- gnus|De- * i, qui|tol- * lis pec- ca- ta|mun- * di;|
 z4 z2 (G,2 | A,2 G,2) F,4 | (B,,2 =B,,2 C,2) A,,2 | B,,8 |!pp! E,4!<(! E,2!<)! E,2 | %261
w: do-|* * na|no- * * bis|pa-|cem, do- na|
 C,2!>(! C,2!>)! A,,4 | !fermata![E,,E,]8 |] %263
w: no- bis pas-|cem.|

